_includes/icons/ios-4k.svg

<svg fill="#666" height="50" viewBox="0 0 50 50" width="50" xmlns="http://www.w3.org/2000/svg"><path d="m1 4v5.6875c-.058594.195313-.058594.398438 0 .59375v29.25c-.132812.277344-.132812.597656 0 .875v5.59375h48v-5.8125c.027344-.132812.027344-.273437 0-.40625v-29.59375c.027344-.132812.027344-.273437 0-.40625v-5.78125zm2 2h3v3h-3zm5 0h4v3h-4zm6 0h4v3h-4zm6 0h4v3h-4zm6 0h4v3h-4zm6 0h4v3h-4zm6 0h4v3h-4zm6 0h3v3h-3zm-41 5h44v28h-44zm17.40625 8-.28125.53125-4 7.6875-.125.21875v1.5625h5v2h2v-2h1v-2h-1v-8zm5.59375 0v12h2v-3l.96875-1.78125 2.03125 4.78125h2l-2.9375-6.71875 2.9375-5.28125h-2l-3 5.40625v-5.40625zm-5 3.15625v4.84375h-2.53125zm-18 18.84375h3v3h-3zm5 0h4v3h-4zm6 0h4v3h-4zm6 0h4v3h-4zm6 0h4v3h-4zm6 0h4v3h-4zm6 0h4v3h-4zm6 0h3v3h-3z"/></svg>

<svg xmlns="http://www.w3.org/2000/svg" viewBox="0 0 50 50" width="50" height="50" fill="#666"><path d="M 1 4 L 1 9.6875 C 0.941406 9.882813 0.941406 10.085938 1 10.28125 L 1 39.53125 C 0.867188 39.808594 0.867188 40.128906 1 40.40625 L 1 46 L 49 46 L 49 40.1875 C 49.027344 40.054688 49.027344 39.914063 49 39.78125 L 49 10.1875 C 49.027344 10.054688 49.027344 9.914063 49 9.78125 L 49 4 Z M 3 6 L 6 6 L 6 9 L 3 9 Z M 8 6 L 12 6 L 12 9 L 8 9 Z M 14 6 L 18 6 L 18 9 L 14 9 Z M 20 6 L 24 6 L 24 9 L 20 9 Z M 26 6 L 30 6 L 30 9 L 26 9 Z M 32 6 L 36 6 L 36 9 L 32 9 Z M 38 6 L 42 6 L 42 9 L 38 9 Z M 44 6 L 47 6 L 47 9 L 44 9 Z M 3 11 L 47 11 L 47 39 L 3 39 Z M 20.40625 19 L 20.125 19.53125 L 16.125 27.21875 L 16 27.4375 L 16 29 L 21 29 L 21 31 L 23 31 L 23 29 L 24 29 L 24 27 L 23 27 L 23 19 Z M 26 19 L 26 31 L 28 31 L 28 28 L 28.96875 26.21875 L 31 31 L 33 31 L 30.0625 24.28125 L 33 19 L 31 19 L 28 24.40625 L 28 19 Z M 21 22.15625 L 21 27 L 18.46875 27 Z M 3 41 L 6 41 L 6 44 L 3 44 Z M 8 41 L 12 41 L 12 44 L 8 44 Z M 14 41 L 18 41 L 18 44 L 14 44 Z M 20 41 L 24 41 L 24 44 L 20 44 Z M 26 41 L 30 41 L 30 44 L 26 44 Z M 32 41 L 36 41 L 36 44 L 32 44 Z M 38 41 L 42 41 L 42 44 L 38 44 Z M 44 41 L 47 41 L 47 44 L 44 44 Z"/></svg>
